Dominus_Dark_Funeral/scalable/apps/python.svg

<svg xmlns="http://www.w3.org/2000/svg" xmlns:xlink="http://www.w3.org/1999/xlink" width="48" height="48" viewBox="0 0 12.7 12.7"><defs><linearGradient id="g"><stop offset="0" stop-color="#483745"/><stop offset="1" stop-color="#e3dbe2"/></linearGradient><linearGradient id="c"><stop offset="0"/><stop offset="1" stop-opacity="0"/></linearGradient><linearGradient id="a"><stop offset="0" stop-color="#37a8f3"/><stop offset="1" stop-color="#366c99"/></linearGradient><linearGradient id="b"><stop stop-color="#ffe253" offset="0"/><stop stop-color="#ffca1c" offset="1"/></linearGradient><linearGradient xlink:href="#c" id="i" gradientUnits="userSpaceOnUse" x1="3.17" y1="286.7" x2="12.87" y2="292.98"/><linearGradient xlink:href="#d" id="j" x1="13.36" y1="31.47" x2="20.32" y2="5.8" gradientUnits="userSpaceOnUse" gradientTransform="matrix(.20038 0 0 .20038 1.54 285.1)"/><linearGradient id="d"><stop offset="0" stop-color="#214478"/><stop offset="1" stop-color="#3771c8"/></linearGradient><linearGradient xlink:href="#e" id="k" x1="12.53" y1="3.44" x2="16.87" y2="21.31" gradientUnits="userSpaceOnUse" gradientTransform="matrix(.20038 0 0 .20038 1.54 285.1)"/><linearGradient id="e"><stop offset="0" stop-color="#fff"/><stop offset="1" stop-color="#fff" stop-opacity="0"/></linearGradient><radialGradient xlink:href="#e" id="l" cx="17.21" cy="6" fx="17.21" fy="6" r="1.79" gradientTransform="matrix(.20038 0 0 .20176 1.54 285.08)" gradientUnits="userSpaceOnUse"/><linearGradient xlink:href="#f" id="m" x1="28.11" y1="38.18" x2="34.65" y2="13.55" gradientUnits="userSpaceOnUse" gradientTransform="matrix(.20038 0 0 .20038 1.54 285.1)"/><linearGradient id="f"><stop offset="0" stop-color="#ffe253"/><stop offset="1" stop-color="#c8ab37"/></linearGradient><radialGradient xlink:href="#e" id="n" cx="17.21" cy="6" fx="17.21" fy="6" r="1.79" gradientTransform="matrix(-.20038 0 0 -.20176 11.17 294.1)" gradientUnits="userSpaceOnUse"/><radialGradient xlink:href="#g" id="h" cx="6.35" cy="290.65" fx="6.35" fy="290.65" r="5.35" gradientTransform="matrix(.99998 -.00687 .00893 1.30027 -2.6 -87.23)" gradientUnits="userSpaceOnUse"/></defs><path d="M6.35 284.4c-1.54 0-2.78.29-3.69.87A3.67 3.67 0 0 0 1 288.52c0 1.91 1.54 4.47 2.01 5.2.54.85 1.13 1.61 1.65 2.16.68.7 1.21 1.03 1.7 1.03.47 0 1-.33 1.68-1.03.52-.55 1.11-1.31 1.65-2.15.47-.74 2-3.3 2-5.21 0-1.42-.57-2.54-1.65-3.25a6.75 6.75 0 0 0-3.69-.88z" fill="url(#h)" transform="translate(0 -284.3)"/><path d="M1.04 3.9c0 .1-.04.2-.04.32 0 1.91 1.54 4.47 2.01 5.2.54.85 1.13 1.61 1.65 2.16.68.7 1.21 1.03 1.69 1.03s1.01-.33 1.69-1.03c.52-.55 1.11-1.31 1.65-2.15.47-.74 2-3.3 2-5.21 0-.11-.02-.21-.03-.32-.02.42-.08.86-.21 1.3-.15.53-.36 1.05-.58 1.53-.44.97-.95 1.8-1.18 2.17-.54.84-1.13 1.6-1.65 2.15-.34.35-.64.61-.92.78-.28.17-.53.25-.77.25s-.5-.08-.77-.25a4.76 4.76 0 0 1-.92-.78A14.41 14.41 0 0 1 3.01 8.9c-.23-.37-.74-1.2-1.18-2.17-.22-.48-.43-1-.58-1.52-.13-.45-.19-.89-.21-1.31z" opacity=".5"/><path d="M7.73 296.14c.1-.1.2-.14.3-.26.53-.55 1.12-1.31 1.66-2.15.23-.37.74-1.2 1.18-2.17.22-.48.43-1 .58-1.52.05-.17.04-.32.08-.49l-3.66-3.59-3.63 1.29 1.34.9-2.9 2.93z" opacity=".6" fill="url(#i)" transform="translate(0 -284.3)"/><path d="M8.47 8.33c0 .54-.57.82-1.06.96-.72.2-1.3.18-1.91 0-.5-.15-.97-.45-.97-.96V6.47c0-.62.46-1 .97-1h1.7c.65 0 1.29-.66 1.28-1.31V3.5h.85c.56 0 .82.41.96.96.19.76.2 1.33 0 1.93-.2.58-.4 1.03-.96 1.03H6.46h2z" fill="none"/><path d="M5.29 1.32c.72-.21 1.3-.18 1.91 0 .5.14.96.45.96.96v1.95c0 .28-.4.91-.96.91H5.42c-.5 0-1.2.55-1.2 1.2v.76h-.85c-.56 0-.82-.41-.96-.96-.19-.77-.2-1.34 0-1.93.2-.58.4-1.03.96-1.03H6.24h-2V2.2c0-.4.48-.72 1.05-.88z" fill="none"/><path d="M6.29 285.47c-.31 0-.64.04-1 .15-.57.17-1.06.48-1.05.88v.75h1.81v.22H4.24h.89-1.75c-.56 0-.77.46-.96 1.04-.2.6-.2 1.16 0 1.93.14.54.4.96.96.96h.84v-.76c0-.66.7-1.2 1.2-1.2H7.2c.56 0 .96-.63.96-.9v-1.96c0-.51-.45-.81-.96-.96-.3-.09-.6-.14-.91-.15z" fill="url(#j)" transform="translate(0 -284.3)"/><path d="M8.16 287.15v-.57a.78.78 0 0 0-.08-.34.9.9 0 0 0-.2-.28 1.73 1.73 0 0 0-.68-.34 3.37 3.37 0 0 0-1.91 0c-.28.08-.55.2-.74.35a.93.93 0 0 0-.23.25.52.52 0 0 0-.08.28v.75h1.81v.22H4.24h.89-1.75a.77.77 0 0 0-.36.09.78.78 0 0 0-.26.22c-.15.18-.25.44-.34.73-.1.3-.15.59-.15.9l.03.17c1.63-1.95 3.9-.73 5.86-2.43z" opacity=".34" fill="url(#k)" transform="translate(0 -284.3)"/><path d="M4.82 2.14a.36.36 0 1 1 .72 0 .36.36 0 0 1-.72 0z" fill="#333"/><path d="M4.82 286.44a.36.36 0 1 1 .72 0 .36.36 0 0 1-.72 0z" fill="url(#l)" transform="translate(0 -284.3)"/><path d="M6.41 293.73c.32 0 .64-.04 1-.14.57-.17 1.06-.48 1.05-.88v-.75h-1.8v-.23h1.8-.89 1.76c.55 0 .76-.46.96-1.03.2-.6.19-1.17 0-1.93-.14-.55-.4-.96-.96-.96h-.85v.76c0 .65-.7 1.2-1.2 1.2H5.5c-.56 0-.96.63-.96.9v1.95c0 .52.45.82.96.97.3.09.6.14.91.14z" fill="url(#m)" transform="translate(0 -284.3)"/><path d="M10.38 5.15c-.02-.22-.03-.43-.1-.68a1.63 1.63 0 0 0-.32-.69.8.8 0 0 0-.63-.27h-.84v.76c0 .16-.05.32-.12.46a1.5 1.5 0 0 1-.69.64 1 1 0 0 1-.4.1H5.5a.8.8 0 0 0-.39.1 1.3 1.3 0 0 0-.5.55.65.65 0 0 0-.07.25v1.19c1.63-1.94 3.89-.75 5.84-2.41z" opacity=".35" fill="#6c6753"/><path d="M7.9 8.44c0 .2-.17.36-.37.36a.36.36 0 0 1-.35-.36c0-.2.16-.36.35-.36.2 0 .36.16.36.36z" fill="#333"/><path d="M7.9 292.74c0 .2-.17.36-.37.36a.36.36 0 0 1-.35-.36c0-.2.16-.36.35-.36.2 0 .36.16.36.36z" fill="url(#n)" transform="translate(0 -284.3)"/></svg>

<?xml version="1.0" encoding="UTF-8" standalone="no"?>
<svg
   xmlns:dc="http://purl.org/dc/elements/1.1/"
   xmlns:cc="http://creativecommons.org/ns#"
   xmlns:rdf="http://www.w3.org/1999/02/22-rdf-syntax-ns#"
   xmlns:svg="http://www.w3.org/2000/svg"
   xmlns="http://www.w3.org/2000/svg"
   xmlns:xlink="http://www.w3.org/1999/xlink"
   xmlns:sodipodi="http://sodipodi.sourceforge.net/DTD/sodipodi-0.dtd"
   xmlns:inkscape="http://www.inkscape.org/namespaces/inkscape"
   width="48"
   height="48"
   viewBox="0 0 12.7 12.7"
   version="1.1"
   id="svg72"
   sodipodi:docname="python.svg"
   inkscape:version="0.92.4 (5da689c313, 2019-01-14)">
  <metadata
     id="metadata76">
    <rdf:RDF>
      <cc:Work
         rdf:about="">
        <dc:format>image/svg+xml</dc:format>
        <dc:type
           rdf:resource="http://purl.org/dc/dcmitype/StillImage" />
        <dc:title></dc:title>
      </cc:Work>
    </rdf:RDF>
  </metadata>
  <sodipodi:namedview
     pagecolor="#ffffff"
     bordercolor="#666666"
     borderopacity="1"
     objecttolerance="10"
     gridtolerance="10"
     guidetolerance="10"
     inkscape:pageopacity="0"
     inkscape:pageshadow="2"
     inkscape:window-width="1112"
     inkscape:window-height="480"
     id="namedview74"
     showgrid="false"
     inkscape:zoom="4.9166667"
     inkscape:cx="2.1355932"
     inkscape:cy="24"
     inkscape:window-x="0"
     inkscape:window-y="25"
     inkscape:window-maximized="0"
     inkscape:current-layer="svg72" />
  <defs
     id="defs44">
    <linearGradient
       id="g">
      <stop
         offset="0"
         stop-color="#483745"
         id="stop2" />
      <stop
         offset="1"
         stop-color="#e3dbe2"
         id="stop4" />
    </linearGradient>
    <linearGradient
       id="c">
      <stop
         offset="0"
         id="stop7" />
      <stop
         offset="1"
         stop-opacity="0"
         id="stop9" />
    </linearGradient>
    <linearGradient
       id="a">
      <stop
         offset="0"
         stop-color="#37a8f3"
         id="stop12" />
      <stop
         offset="1"
         stop-color="#366c99"
         id="stop14" />
    </linearGradient>
    <linearGradient
       id="b">
      <stop
         stop-color="#ffe253"
         offset="0"
         id="stop17" />
      <stop
         stop-color="#ffca1c"
         offset="1"
         id="stop19" />
    </linearGradient>
    <linearGradient
       xlink:href="#c"
       id="i"
       gradientUnits="userSpaceOnUse"
       x1="3.17"
       y1="286.7"
       x2="12.87"
       y2="292.98"
       gradientTransform="translate(0,-284.3)" />
    <linearGradient
       xlink:href="#d"
       id="j"
       x1="13.36"
       y1="31.47"
       x2="20.32"
       y2="5.8"
       gradientUnits="userSpaceOnUse"
       gradientTransform="matrix(0.20038,0,0,0.20038,1.54,0.8)" />
    <linearGradient
       id="d">
      <stop
         offset="0"
         stop-color="#214478"
         id="stop24" />
      <stop
         offset="1"
         stop-color="#3771c8"
         id="stop26" />
    </linearGradient>
    <linearGradient
       xlink:href="#e"
       id="k"
       x1="12.53"
       y1="3.44"
       x2="16.87"
       y2="21.31"
       gradientUnits="userSpaceOnUse"
       gradientTransform="matrix(0.20038,0,0,0.20038,1.54,0.8)" />
    <linearGradient
       id="e">
      <stop
         offset="0"
         stop-color="#fff"
         id="stop30" />
      <stop
         offset="1"
         stop-color="#fff"
         stop-opacity="0"
         id="stop32" />
    </linearGradient>
    <radialGradient
       xlink:href="#e"
       id="l"
       cx="17.21"
       cy="6"
       fx="17.21"
       fy="6"
       r="1.79"
       gradientTransform="matrix(0.20038,0,0,0.20176,1.54,0.78)"
       gradientUnits="userSpaceOnUse" />
    <linearGradient
       xlink:href="#f"
       id="m"
       x1="28.11"
       y1="38.18"
       x2="34.65"
       y2="13.55"
       gradientUnits="userSpaceOnUse"
       gradientTransform="matrix(0.20038,0,0,0.20038,1.54,0.8)" />
    <linearGradient
       id="f">
      <stop
         offset="0"
         stop-color="#ffe253"
         id="stop37" />
      <stop
         offset="1"
         stop-color="#c8ab37"
         id="stop39" />
    </linearGradient>
    <radialGradient
       xlink:href="#e"
       id="n"
       cx="17.21"
       cy="6"
       fx="17.21"
       fy="6"
       r="1.79"
       gradientTransform="matrix(-0.20038,0,0,-0.20176,11.17,9.8)"
       gradientUnits="userSpaceOnUse" />
    <radialGradient
       xlink:href="#g"
       id="h"
       cx="6.35"
       cy="290.65"
       fx="6.35"
       fy="290.65"
       r="5.35"
       gradientTransform="matrix(0.99998,-0.00687,0.00893,1.30027,-2.6,-371.53)"
       gradientUnits="userSpaceOnUse" />
  </defs>
  <path
     d="M 6.35,0.1 C 4.81,0.1 3.57,0.39 2.66,0.97 A 3.67,3.67 0 0 0 1,4.22 c 0,1.91 1.54,4.47 2.01,5.2 0.54,0.85 1.13,1.61 1.65,2.16 0.68,0.7 1.21,1.03 1.7,1.03 0.47,0 1,-0.33 1.68,-1.03 0.52,-0.55 1.11,-1.31 1.65,-2.15 0.47,-0.74 2,-3.3 2,-5.21 0,-1.42 -0.57,-2.54 -1.65,-3.25 A 6.75,6.75 0 0 0 6.35,0.09 Z"
     id="path46"
     style="fill:url(#h)"
     inkscape:connector-curvature="0" />
  <path
     d="M 1.04,3.9 C 1.04,4 1,4.1 1,4.22 c 0,1.91 1.54,4.47 2.01,5.2 0.54,0.85 1.13,1.61 1.65,2.16 0.68,0.7 1.21,1.03 1.69,1.03 0.48,0 1.01,-0.33 1.69,-1.03 0.52,-0.55 1.11,-1.31 1.65,-2.15 0.47,-0.74 2,-3.3 2,-5.21 C 11.69,4.11 11.67,4.01 11.66,3.9 11.64,4.32 11.58,4.76 11.45,5.2 11.3,5.73 11.09,6.25 10.87,6.73 10.43,7.7 9.92,8.53 9.69,8.9 9.15,9.74 8.56,10.5 8.04,11.05 7.7,11.4 7.4,11.66 7.12,11.83 6.84,12 6.59,12.08 6.35,12.08 6.11,12.08 5.85,12 5.58,11.83 A 4.76,4.76 0 0 1 4.66,11.05 14.41,14.41 0 0 1 3.01,8.9 C 2.78,8.53 2.27,7.7 1.83,6.73 1.61,6.25 1.4,5.73 1.25,5.21 1.12,4.76 1.06,4.32 1.04,3.9 Z"
     id="path48"
     inkscape:connector-curvature="0"
     style="opacity:0.5" />
  <path
     d="m 7.73,11.84 c 0.1,-0.1 0.2,-0.14 0.3,-0.26 0.53,-0.55 1.12,-1.31 1.66,-2.15 0.23,-0.37 0.74,-1.2 1.18,-2.17 0.22,-0.48 0.43,-1 0.58,-1.52 0.05,-0.17 0.04,-0.32 0.08,-0.49 L 7.87,1.66 4.24,2.95 5.58,3.85 2.68,6.78 Z"
     id="path50"
     style="opacity:0.6;fill:url(#i)"
     inkscape:connector-curvature="0" />
  <path
     d="M 8.47,8.33 C 8.47,8.87 7.9,9.15 7.41,9.29 6.69,9.49 6.11,9.47 5.5,9.29 5,9.14 4.53,8.84 4.53,8.33 V 6.47 c 0,-0.62 0.46,-1 0.97,-1 h 1.7 c 0.65,0 1.29,-0.66 1.28,-1.31 V 3.5 h 0.85 c 0.56,0 0.82,0.41 0.96,0.96 0.19,0.76 0.2,1.33 0,1.93 -0.2,0.58 -0.4,1.03 -0.96,1.03 h -2.87 2 z"
     id="path52"
     inkscape:connector-curvature="0"
     style="fill:none" />
  <path
     d="m 5.29,1.32 c 0.72,-0.21 1.3,-0.18 1.91,0 0.5,0.14 0.96,0.45 0.96,0.96 v 1.95 c 0,0.28 -0.4,0.91 -0.96,0.91 H 5.42 c -0.5,0 -1.2,0.55 -1.2,1.2 V 7.1 H 3.37 C 2.81,7.1 2.55,6.69 2.41,6.14 2.22,5.37 2.21,4.8 2.41,4.21 2.61,3.63 2.81,3.18 3.37,3.18 h 2.87 -2 V 2.2 c 0,-0.4 0.48,-0.72 1.05,-0.88 z"
     id="path54"
     inkscape:connector-curvature="0"
     style="fill:none" />
  <path
     d="m 6.29,1.17 c -0.31,0 -0.64,0.04 -1,0.15 C 4.72,1.49 4.23,1.8 4.24,2.2 V 2.95 H 6.05 V 3.17 H 4.24 5.13 3.38 c -0.56,0 -0.77,0.46 -0.96,1.04 -0.2,0.6 -0.2,1.16 0,1.93 0.14,0.54 0.4,0.96 0.96,0.96 H 4.22 V 6.34 c 0,-0.66 0.7,-1.2 1.2,-1.2 H 7.2 c 0.56,0 0.96,-0.63 0.96,-0.9 V 2.28 C 8.16,1.77 7.71,1.47 7.2,1.32 6.9,1.23 6.6,1.18 6.29,1.17 Z"
     id="path56"
     style="fill:url(#j)"
     inkscape:connector-curvature="0" />
  <path
     d="M 8.16,2.85 V 2.28 A 0.78,0.78 0 0 0 8.08,1.94 0.9,0.9 0 0 0 7.88,1.66 1.73,1.73 0 0 0 7.2,1.32 3.37,3.37 0 0 0 5.29,1.32 C 5.01,1.4 4.74,1.52 4.55,1.67 A 0.93,0.93 0 0 0 4.32,1.92 0.52,0.52 0 0 0 4.24,2.2 V 2.95 H 6.05 V 3.17 H 4.24 5.13 3.38 A 0.77,0.77 0 0 0 3.02,3.26 0.78,0.78 0 0 0 2.76,3.48 C 2.61,3.66 2.51,3.92 2.42,4.21 2.32,4.51 2.27,4.8 2.27,5.11 L 2.3,5.28 C 3.93,3.33 6.2,4.55 8.16,2.85 Z"
     id="path58"
     style="opacity:0.34000011;fill:url(#k)"
     inkscape:connector-curvature="0" />
  <path
     d="m 4.82,2.14 a 0.36,0.36 0 1 1 0.72,0 0.36,0.36 0 0 1 -0.72,0 z"
     id="path60"
     inkscape:connector-curvature="0"
     style="fill:#333333" />
  <path
     d="m 4.82,2.14 a 0.36,0.36 0 1 1 0.72,0 0.36,0.36 0 0 1 -0.72,0 z"
     id="path62"
     style="fill:url(#l)"
     inkscape:connector-curvature="0" />
  <path
     d="m 6.41,9.43 c 0.32,0 0.64,-0.04 1,-0.14 C 7.98,9.12 8.47,8.81 8.46,8.41 V 7.66 H 6.66 V 7.43 h 1.8 -0.89 1.76 c 0.55,0 0.76,-0.46 0.96,-1.03 0.2,-0.6 0.19,-1.17 0,-1.93 C 10.15,3.92 9.89,3.51 9.33,3.51 H 8.48 v 0.76 c 0,0.65 -0.7,1.2 -1.2,1.2 H 5.5 c -0.56,0 -0.96,0.63 -0.96,0.9 v 1.95 c 0,0.52 0.45,0.82 0.96,0.97 0.3,0.09 0.6,0.14 0.91,0.14 z"
     id="path64"
     style="fill:url(#m)"
     inkscape:connector-curvature="0" />
  <path
     d="M 10.38,5.15 C 10.36,4.93 10.35,4.72 10.28,4.47 A 1.63,1.63 0 0 0 9.96,3.78 0.8,0.8 0 0 0 9.33,3.51 H 8.49 v 0.76 c 0,0.16 -0.05,0.32 -0.12,0.46 A 1.5,1.5 0 0 1 7.68,5.37 1,1 0 0 1 7.28,5.47 H 5.5 A 0.8,0.8 0 0 0 5.11,5.57 1.3,1.3 0 0 0 4.61,6.12 0.65,0.65 0 0 0 4.54,6.37 V 7.56 C 6.17,5.62 8.43,6.81 10.38,5.15 Z"
     id="path66"
     inkscape:connector-curvature="0"
     style="opacity:0.35;fill:#6c6753" />
  <path
     d="M 7.9,8.44 C 7.9,8.64 7.73,8.8 7.53,8.8 A 0.36,0.36 0 0 1 7.18,8.44 c 0,-0.2 0.16,-0.36 0.35,-0.36 0.2,0 0.36,0.16 0.36,0.36 z"
     id="path68"
     inkscape:connector-curvature="0"
     style="fill:#333333" />
  <path
     d="M 7.9,8.44 C 7.9,8.64 7.73,8.8 7.53,8.8 A 0.36,0.36 0 0 1 7.18,8.44 c 0,-0.2 0.16,-0.36 0.35,-0.36 0.2,0 0.36,0.16 0.36,0.36 z"
     id="path70"
     style="fill:url(#n)"
     inkscape:connector-curvature="0" />
</svg>
